svg/u1f381.svg

<svg viewBox="0 0 128 128" xmlns="http://www.w3.org/2000/svg">
  <path d="M16.4,31.73c0,0-6.45,0.51-7.31,1.96c-0.87,1.45-0.92,3.68-0.92,6.13c0,2.46-0.1,8.1-0.1,8.1 l1.54,3.31c0,0,0.29,42.19,0.29,43.5c0,1.3,0,2.89,1.88,3.9c1.88,1.01,49.66,24.09,51.15,24.71c2.25,0.93,3.32,0.58,3.32,0.58 l53.09-88.79c0,0-0.17-2.43-2.38-3.01C115.69,31.8,16.4,31.73,16.4,31.73z" fill="#F5B03E"/>
  <path d="M65.68,60.92c-0.81,2.23-0.44,25.29-0.3,42.06c0.14,16.76-0.43,20.23,0,20.81 c0.43,0.58,1.6,0.02,4.91-1.45c6.15-2.72,35.69-17.34,37.86-18.64c2.17-1.3,7.47-3.99,8.34-5.44s1.34-14.94,1.63-25.77 c0.29-10.84,0.58-19.51,0.58-19.51l1.3-3.9c0,0-0.28-10.54-0.33-11.7c-0.09-1.92-0.3-2.91-0.79-2.67c-0.7,0.33-6.54,5.12-22,12.64 C87.17,52.06,66.24,59.38,65.68,60.92z" fill="#E07F14"/>
  <path d="M65.82,11.21c-4.33-0.2-16.18,6.65-27.6,10.4S9.56,32.9,9.41,33.34c-0.14,0.43,6.94,3.6,11.46,5.77 c5.37,2.57,25.87,12.28,29.62,13.87c3.76,1.59,12.72,5.31,14.16,5.2c2.02-0.14,21.1-7.66,30.78-12.28s21.78-11.78,21.94-13.52 c0.07-0.78-17.8-7.45-26.71-11.48C73.46,13.11,68.99,11.36,65.82,11.21z" fill="#FDD717"/>
  <path d="M8.12,49.77c0.15,1.88,1.18,2.55,3.8,3.69c2.62,1.14,52.15,26.87,53.29,26.87 c1.14,0,1.48-4.08,0.23-3.97c-0.68,0.06-16.95-7.67-32.15-15.39C20.39,54.43,8.04,47.9,8.04,47.9L8.12,49.77z" fill="#E37D14"/>
  <path d="M120.01,48.99c0,0-52.89,26.9-53.41,27.16s-1.35,0.17-1.35,0.17l-0.04,4.01c0,0,0.49,0.11,1.04-0.06 c0.32-0.1,52.23-26.97,52.46-27.05s1.23-0.68,1.44-1.95C120.33,50.25,120.01,48.99,120.01,48.99z" fill="#BA5E0D"/>
  <path d="M28.86,97.42l10.35,15.4l4.53,1.55c0,0,0.37-16.8,0.52-29.25c0.21-18.19,0.13-34.78,0.39-35.72 c0.43-1.59,20.56-8.12,20.56-8.12S87.95,48.41,88.67,50c0.32,0.7,0.07,12.48,0,26.21c-0.09,17.34-0.06,37.36-0.06,37.36 s2.35-0.01,2.63-0.88c0.29-0.87,1.45-7.58,1.45-7.58l8.82-58.79l4.48-5.78L99.77,28.7L74.25,16.14l-8.77,1.97l-9.49-1.45 l-30.1,21.63l3.51,7.12l8.61,4.39L28.86,97.42z" fill="#AF0F1B"/>
  <path d="M91.28,49.39c-0.55,1.21-0.23,63.56-0.23,63.56s2.75-1.52,6.29-3.22c3.52-1.69,6.05-2.74,6.27-3.62 s0.61-62.54,0.61-62.54L91.28,49.39z" fill="#DC0D28"/>
  <path d="M41.35,48.1c0.33,0.36-0.21,65.06-0.88,65.21c-0.53,0.13-12.58-5.25-12.58-5.8 c0-0.55,0.97-62.38,0.97-62.38S40.37,47,41.35,48.1z" fill="#FF2A23"/>
  <path d="M65.23,14.25c-3.33,0-7.01,0.95-8.08,3.74s-1.31,6.94-1.31,10.04c0,2.97-0.48,10.57,8.67,10.45 c9.15-0.12,9.42-3.51,9.56-10.99c0.12-6.24-0.71-9.27-1.54-10.57C71.79,15.75,69.33,14.25,65.23,14.25z" fill="#FF2A23"/>
  <path d="M59.94,29.69c2.08,0.12,2.97-4.45,4.57-6.95c1.6-2.49,3.27-4.16,2.67-5.46 c-0.49-1.08-4.84-1.43-7.19,1.84C58.34,21.43,58.05,29.58,59.94,29.69z" fill="#FCC9D2"/>
  <path d="M73.33,16.42c0,0,2.95,3,3.72,8.88s-0.12,10.45-0.12,10.45s14.66-0.44,19.72,0.53 c4.99,0.97,6.73,3.17,6.73,4.77c0,1.6-3.28,2.89-6.61,2.65s-5.58-0.42-6,0.42s0.18,2.14,4.81,2.49c4.63,0.36,9.98-0.3,11.64-6.06 s1.72-15.74,1.13-22.93c-0.59-7.19-1.89-11.3-5.11-12.86c-3.39-1.63-11.88-1.9-19.9,2.61S73.33,16.42,73.33,16.42z" fill="#FF2A23"/>
  <path d="M89.94,9.58c-1.04-1.34-4.39-1.3-6.18,0.77c-1.9,2.2-2.32,10.57,0.12,11.05 c2.76,0.54,2.26-3.98,4.28-6.77C90.14,11.9,90.95,10.89,89.94,9.58z" fill="#FCC9D2"/>
  <path d="M56.38,16.71c0,0-11.23-13.09-24.06-12.89c-7.72,0.12-9.68,4.57-10.1,6.41s-3.62,20.14,0.65,30.05 S36,47.62,37.39,47.3c1.78-0.42,5.57-1.72,5.21-3.09c-0.36-1.37-12.95,3.56-13.07-2.08s8.91-6.24,13.07-6.36 c4.16-0.12,11.29,0.83,11.29,0.83s-1.25-6.83-0.42-11.7S56.38,16.71,56.38,16.71z" fill="#FF2A23"/>
  <path d="M28.88,8.57c-1.6,1.66-2.26,11.23-1.25,15.98s1.9,6.77,3.98,6.36c1.74-0.35,2.79-9.67,3.62-12.95 c0.89-3.5,3.09-7.22,2.2-8.85C36.07,6.61,30.55,6.84,28.88,8.57z" fill="#FCC9D2"/>
</svg>

<svg viewBox="0 0 128 128" xmlns="http://www.w3.org/2000/svg">
  <defs/>
  <path d="M16.4,31.73 C16.4,31.73 9.95,32.24 9.09,33.69 C8.22,35.14 8.17,37.37 8.17,39.82 C8.17,42.28 8.07,47.92 8.07,47.92 L9.61,51.23 C9.61,51.23 9.9,93.42 9.9,94.73 C9.9,96.03 9.9,97.62 11.78,98.63 C13.66,99.64 61.44,122.72 62.93,123.34 C65.18,124.27 66.25,123.92 66.25,123.92 L119.34,35.13 C119.34,35.13 119.17,32.7 116.96,32.12 C115.69,31.8 16.4,31.73 16.4,31.73 Z" fill="#F5B03E"/>
  <path d="M65.68,60.92 C64.87,63.15 65.24,86.21 65.38,102.98 C65.52,119.74 64.95,123.21 65.38,123.79 C65.81,124.37 66.98,123.81 70.29,122.34 C76.44,119.62 105.98,105 108.15,103.7 C110.32,102.4 115.62,99.71 116.49,98.26 C117.36,96.81 117.83,83.32 118.12,72.49 C118.41,61.65 118.7,52.98 118.7,52.98 L120,49.08 C120,49.08 119.72,38.54 119.67,37.38 C119.58,35.46 119.37,34.47 118.88,34.71 C118.18,35.04 112.34,39.83 96.88,47.35 C87.17,52.06 66.24,59.38 65.68,60.92 Z" fill="#E07F14"/>
  <path d="M65.82,11.21 C61.49,11.01 49.64,17.86 38.22,21.61 C26.8,25.36 9.56,32.9 9.41,33.34 C9.27,33.77 16.35,36.94 20.87,39.11 C26.24,41.68 46.74,51.39 50.49,52.98 C54.25,54.57 63.21,58.29 64.65,58.18 C66.67,58.04 85.75,50.52 95.43,45.9 C105.11,41.28 117.21,34.12 117.37,32.38 C117.44,31.6 99.57,24.93 90.66,20.9 C73.46,13.11 68.99,11.36 65.82,11.21 Z" fill="#FDD717"/>
  <path d="M8.12,49.77 C8.27,51.65 9.3,52.32 11.92,53.46 C14.54,54.6 64.07,80.33 65.21,80.33 C66.35,80.33 66.69,76.25 65.44,76.36 C64.76,76.42 48.49,68.69 33.29,60.97 C20.39,54.43 8.04,47.9 8.04,47.9 L8.12,49.77 Z" fill="#E37D14"/>
  <path d="M120.01,48.99 C120.01,48.99 67.12,75.89 66.6,76.15 C66.08,76.41 65.25,76.32 65.25,76.32 L65.21,80.33 C65.21,80.33 65.7,80.44 66.25,80.27 C66.57,80.17 118.48,53.3 118.71,53.22 C118.94,53.14 119.94,52.54 120.15,51.27 C120.33,50.25 120.01,48.99 120.01,48.99 Z" fill="#BA5E0D"/>
  <path d="M28.86,97.42 L39.21,112.82 L43.74,114.37 C43.74,114.37 44.11,97.57 44.26,85.12 C44.47,66.93 44.39,50.34 44.65,49.4 C45.08,47.81 65.21,41.28 65.21,41.28 C65.21,41.28 87.95,48.41 88.67,50 C88.99,50.7 88.74,62.48 88.67,76.21 C88.58,93.55 88.61,113.57 88.61,113.57 C88.61,113.57 90.96,113.56 91.24,112.69 C91.53,111.82 92.69,105.11 92.69,105.11 L101.51,46.32 L105.99,40.54 L99.77,28.7 L74.25,16.14 L65.48,18.11 L55.99,16.66 L25.89,38.29 L29.4,45.41 L38.01,49.8 L28.86,97.42 Z" fill="#AF0F1B"/>
  <path d="M91.28,49.39 C90.73,50.6 91.05,112.95 91.05,112.95 C91.05,112.95 93.8,111.43 97.34,109.73 C100.86,108.04 103.39,106.99 103.61,106.11 C103.83,105.23 104.22,43.57 104.22,43.57 L91.28,49.39 Z" fill="#DC0D28"/>
  <path d="M41.35,48.1 C41.68,48.46 41.14,113.16 40.47,113.31 C39.94,113.44 27.89,108.06 27.89,107.51 C27.89,106.96 28.86,45.13 28.86,45.13 C28.86,45.13 40.37,47 41.35,48.1 Z" fill="#FF2A23"/>
  <path d="M65.23,14.25 C61.9,14.25 58.22,15.2 57.15,17.99 C56.08,20.78 55.84,24.93 55.84,28.03 C55.84,31 55.36,38.6 64.51,38.48 C73.66,38.36 73.93,34.97 74.07,27.49 C74.19,21.25 73.36,18.22 72.53,16.92 C71.79,15.75 69.33,14.25 65.23,14.25 Z" fill="#FF2A23"/>
  <path d="M59.94,29.69 C62.02,29.81 62.91,25.24 64.51,22.74 C66.11,20.25 67.78,18.58 67.18,17.28 C66.69,16.2 62.34,15.85 59.99,19.12 C58.34,21.43 58.05,29.58 59.94,29.69 Z" fill="#FCC9D2"/>
  <path d="M73.33,16.42 C73.33,16.42 76.28,19.42 77.05,25.3 C77.82,31.18 76.93,35.75 76.93,35.75 C76.93,35.75 91.59,35.31 96.65,36.28 C101.64,37.25 103.38,39.45 103.38,41.05 C103.38,42.65 100.1,43.94 96.77,43.7 C93.44,43.46 91.19,43.28 90.77,44.12 C90.35,44.96 90.95,46.26 95.58,46.61 C100.21,46.97 105.56,46.31 107.22,40.55 C108.88,34.79 108.94,24.81 108.35,17.62 C107.76,10.43 106.46,6.32 103.24,4.76 C99.85,3.13 91.36,2.86 83.34,7.37 C75.32,11.88 73.33,16.42 73.33,16.42 Z" fill="#FF2A23"/>
  <path d="M89.94,9.58 C88.9,8.24 85.55,8.28 83.76,10.35 C81.86,12.55 81.44,20.92 83.88,21.4 C86.64,21.94 86.14,17.42 88.16,14.63 C90.14,11.9 90.95,10.89 89.94,9.58 Z" fill="#FCC9D2"/>
  <path d="M56.38,16.71 C56.38,16.71 45.15,3.62 32.32,3.82 C24.6,3.94 22.64,8.39 22.22,10.23 C21.8,12.07 18.6,30.37 22.87,40.28 C27.14,50.19 36,47.62 37.39,47.3 C39.17,46.88 42.96,45.58 42.6,44.21 C42.24,42.84 29.65,47.77 29.53,42.13 C29.41,36.49 38.44,35.89 42.6,35.77 C46.76,35.65 53.89,36.6 53.89,36.6 C53.89,36.6 52.64,29.77 53.47,24.9 C54.3,20.03 56.38,16.71 56.38,16.71 Z" fill="#FF2A23"/>
  <path d="M28.88,8.57 C27.28,10.23 26.62,19.8 27.63,24.55 C28.64,29.3 29.53,31.32 31.61,30.91 C33.35,30.56 34.4,21.24 35.23,17.96 C36.12,14.46 38.32,10.74 37.43,9.11 C36.07,6.61 30.55,6.84 28.88,8.57 Z" fill="#FCC9D2"/>
</svg>
